!! 00000] TT[WS
!!!OTL: Zheng buxia yinqian guobuliao
!!!ARE: Asia, China,ÿShanxi Hequ
!! Ethnic Group: Han
!! WI, 3
!!!SCT: J0003
!!!YEM: Copyright 1995, estate of Helmut Schaffrath.
**kern
*ICvox
*Ivox
*M2/4
*k[b-]
*F:
{8gg
4aa
16aa
16ddd
=1
8gg
8gg
8ff
16ff
16dd
=2
8dd
8a
16r
16.g
32g
32g
32cc
=3
2a}
=4
{8gg
4aa
16aa
16ddd
=5
8gg
8gg
8ff
16ff
16dd
=6
8dd
8a
16r
16.g
32g
32g
32cc
=7
2dd}
==
!!!AGN: Shange, Shanqu. Qingge
!!!ONB: ESAC (Essen Associative Code) Database: CHINA
!!!AMT: simple duple
!!!AIN: vox
!!!EED: Helmut Schaffrath
!!!EEV: 1.0
*-
